X:1
T:Pro Patria, 66.66.88
T:Pro Patria, 66.66.88
T:James Armistead, 1911
T:Public Domain Courtesy of the Cyber Hymnal™
C:James Armistead, 1911
Z:Public Domain
Z:Courtesy of the Cyber Hymnal™
%%score ( 1 2 ) ( 3 4 )
L:1/8
Q:1/4=110
M:none
K:D
V:1 treble 
V:2 treble 
V:3 bass 
V:4 bass 
V:1
 [DF]2 | [CA]2 [B,D]2 [B,G]2 (FE) | F6 [CF]2 | [B,B]2 [DE]2 [A,G]2 (FE) | F6 F2 | %5
 [FA]2 [FA]2 [AB]2 [FB]2 | [^Gc]2 [^EG]2 [Fc]2 [FB]2 | [F^G]4 [^EG]4 | F6 F2 | A4 A4 | A4 (z2 A2) | %11
 B2 z2 [Ec]2 x4 | F6 [DF]2 | ([DE]2 [Ed]2) c2 B2 | (B4 A2) D2 | [B,G]4 [CE]4 | D6 |] %17
V:2
 x2 | x6 C2 | (D2 E2 D2) x2 | x8 | (E2 C2 D2) F2 | x8 | x8 | x8 | F6 F2 | (A2 G2) (F2 E2) | %10
 (D2 G2) F4 | F4 (d4 G2) | (E4 D2) x2 | x4 ^G4 | F6 D2 | x8 | D6 |] %17
V:3
 [D,A,]2 | [F,A,]2 [B,,F,]2 [E,G,]2 [A,,A,]2 | (A,2 C2 B,2) [D,A,]2 | %3
 [G,,G,]2 [G,,B,]2 [A,,D]2 [A,C]2 | [D,A,]6 F,2 | [D,D]2 [D,D]2 [DF]2 [DF]2 | %6
 [C^E]2 [B,C]2 [A,C]2 [B,D]2 | C4 [C,B,]4 | [F,A,]6 F,2 | A,2 [B,D]2 C4 | [F,D]2 [E,C]2 D4 | %11
 ([B,,D]2 B,4) [A,,G,]2 x2 | (F,2 C2 B,2) [B,,A,]2 | (^G,2 B,2) [E,D]4 | [A,,D]6 [B,,F,]2 | %15
 [E,G,]4 [A,,G,]4 | [D,F,]6 |] %17
V:4
 x2 | x8 | D,6 x2 | x8 | x6 F,2 | x8 | x8 | C4 x4 | x6 F,2 | (A,2 A,2 G,2) x2 | x4 (D,2 C,2) | %11
 x2 B,2 E,2 x4 | B,,6 x2 | E,4 x4 | x8 | x8 | x6 |] %17

